pictures/bank-note.svg

<svg width="24" height="24" viewBox="0 0 24 24" fill="none" xmlns="http://www.w3.org/2000/svg">
  <path d="M6 10V14M18 10V14M2 8.2L2 15.8C2 16.9201 2 17.4802 2.21799 17.908C2.40973 18.2843 2.71569 18.5903 3.09202 18.782C3.51984 19 4.07989 19 5.2 19L18.8 19C19.9201 19 20.4802 19 20.908 18.782C21.2843 18.5903 21.5903 18.2843 21.782 17.908C22 17.4802 22 16.9201 22 15.8V8.2C22 7.0799 22 6.51984 21.782 6.09202C21.5903 5.7157 21.2843 5.40974 20.908 5.21799C20.4802 5 19.9201 5 18.8 5L5.2 5C4.0799 5 3.51984 5 3.09202 5.21799C2.7157 5.40973 2.40973 5.71569 2.21799 6.09202C2 6.51984 2 7.07989 2 8.2ZM14.5 12C14.5 13.3807 13.3807 14.5 12 14.5C10.6193 14.5 9.5 13.3807 9.5 12C9.5 10.6193 10.6193 9.5 12 9.5C13.3807 9.5 14.5 10.6193 14.5 12Z" stroke="#D92E15" stroke-width="2" stroke-linecap="round" stroke-linejoin="round"/>
  </svg>

<svg width="24" height="24" fill="none" xmlns="http://www.w3.org/2000/svg"><path d="M6 10v4m12-4v4M2 8.2v7.6c0 1.12 0 1.68.218 2.108a2 2 0 0 0 .874.874C3.52 19 4.08 19 5.2 19h13.6c1.12 0 1.68 0 2.108-.218a2 2 0 0 0 .874-.874C22 17.48 22 16.92 22 15.8V8.2c0-1.12 0-1.68-.218-2.108a2 2 0 0 0-.874-.874C20.48 5 19.92 5 18.8 5H5.2c-1.12 0-1.68 0-2.108.218a2 2 0 0 0-.874.874C2 6.52 2 7.08 2 8.2ZM14.5 12a2.5 2.5 0 1 1-5 0 2.5 2.5 0 0 1 5 0Z" stroke="#D92E15" stroke-width="2" stroke-linecap="round" stroke-linejoin="round"/></svg>
